!!!SOCIAL_FUNCTION: tick dance songs
!!!PDT:	1943
!!!LING_GROUP: Muskogean
!!!LANG: Non-Tone
Specific Region: Oklahoma, California, Mississippi, Louisiana, Texas, Alabama
!!!REG: Southeast
!!!COM: Anon.
!!!OTL: Tick Dance Song (d)
!!!ODT: <1933//
!!!MPN: Sidney Wesley
!!!MLC: Philadelphia, Mississippi, United States of America
!! Song was recorded in January 1933.
!!!AGN: monody
!!!AMT: simple duple
!!!RWG: Transcribed pitches, durations, and meters are only approximate.
**kern
*ICvox
*Imale
*clefF4
*k[f#c#g#]
*M2/4
*MM132
=1-
8A
[8A
8A]
8A
=2
4A
4B
=3
8c#
[8B
8B]
8A
=4
4F#
4A
=5
4A
8F#
8F#
=6
4F#
8F#
8r
=7
4.F#
8C#
=8
4F#
4F#
=9
4A
8F#
8F#
=10
4F#
8F#
8r
=11
4.F#
8C#
=12
4F#
8F#
16r
16c#
=13
4.c#
8c#
=14
4A
8A
16r
16c#
=15
4.B
8A
=16
4F#
4A
=17
4A
8F#
8F#
=18
4F#
8F#
8r
=19
4.F#
8C#
=20
4F#
8G#
8r
=21
4A
8F#
8F#
=22
4F#
8F#
8r
=23
4.F#
8C#
=24
4F#
8F#
16r
16B
=25
4.B
8B
=26
4A
8A
16r
16c#
=27
4.B
8A
=28
4F#
4A
=29
4A
8F#
8F#
=30
4F#
8F#
8r
=31
4.F#
8C#
=32
4F#
8G#
8r
=33
4A
8F#
8F#
=34
4F#
8F#
8r
=35
4.F#
8C#
=36
4F#
8F#
8r
==
*-
!!!CNT: Choctaw
!!!TXO: Choctaw
!!!OCY: United States
!!!OCL: Frances Densmore
!!!YOR: Frances Densmore, "Choctaw Music"
!!!YOR: Bulletin 136, page 139, No. 13
!!!PPR: Smithsonian Institution, Bureau of American Ethnology
!!!PPR: Government Printing Office
!!!PDT: 1943
!!!PPP: Washington, DC, United States of America
!!!YEC: Electronic Copyright 2000 David Huron
!!!YER: August 2000
!!!YEN: United States of America
!!!ENC: David Huron
!!!RDT: August 27, 2000
!!!EEV: Release 1.0
!!!AIN: vox
